X: 12
T: No_20_Song_Addressed_to_Medicine_Bowl.krn
N: Derived from No_20_Song_Addressed_to_Medicine_Bowl.krn
%%abc-version 2.0
%%abcx-abcm2ps-target-version 5.9.1 (29 Sep 2008)
%%abc-creator hum2abc beta
%%abcx-conversion-date 2019/03/15 08:25:35
%%humdrum-veritas 126398751
%%humdrum-veritas-data 1517914420
%%linebreak <none>
%%barnumbers 0
L: 1/8
M: 2/4
K: G clef=bass
[K:clef=bass][M:2/4]z2z3/ D/ | 
D2(3EDD | 
D2(3EDD ]|:  
DC DA, | 
G,2G,2 | 
A,C B,A, | 
F,2A,2 | 
G,2G,2 | 
E,D, D, z | 
G,2G,2 | 
B,A,A,2 | 
DC DA, | 
G,2G,2 | 
A,C B,A, | 
F,2A,2 | 
G,2G,2 | 
D2D2 | 
DCD2 :|]  
E,D, D, z |]  



